kirin/koushou.svg

<?xml version="1.0" encoding="UTF-8" standalone="no"?>
<!-- Created with Inkscape (http://www.inkscape.org/) -->

<svg
   xmlns:dc="http://purl.org/dc/elements/1.1/"
   xmlns:cc="http://creativecommons.org/ns#"
   xmlns:rdf="http://www.w3.org/1999/02/22-rdf-syntax-ns#"
   xmlns:svg="http://www.w3.org/2000/svg"
   xmlns="http://www.w3.org/2000/svg"
   xmlns:sodipodi="http://sodipodi.sourceforge.net/DTD/sodipodi-0.dtd"
   xmlns:inkscape="http://www.inkscape.org/namespaces/inkscape"
   width="512"
   height="512"
   viewBox="0 0 512.00001 512.00001"
   id="svg2"
   version="1.1"
   inkscape:version="0.91 r13725"
   sodipodi:docname="koushou.svg"
   inkscape:export-filename="C:\Users\kawahira\Documents\Projects\enju\kirin\koushou.png"
   inkscape:export-xdpi="45"
   inkscape:export-ydpi="45">
  <defs
     id="defs4" />
  <sodipodi:namedview
     id="base"
     pagecolor="#ffffff"
     bordercolor="#666666"
     borderopacity="1.0"
     inkscape:pageopacity="0.0"
     inkscape:pageshadow="2"
     inkscape:zoom="0.7"
     inkscape:cx="-37.056364"
     inkscape:cy="217.48272"
     inkscape:document-units="px"
     inkscape:current-layer="layer1"
     showgrid="false"
     units="px"
     inkscape:window-width="1826"
     inkscape:window-height="1051"
     inkscape:window-x="-9"
     inkscape:window-y="-9"
     inkscape:window-maximized="1" />
  <metadata
     id="metadata7">
    <rdf:RDF>
      <cc:Work
         rdf:about="">
        <dc:format>image/svg+xml</dc:format>
        <dc:type
           rdf:resource="http://purl.org/dc/dcmitype/StillImage" />
        <dc:title />
      </cc:Work>
    </rdf:RDF>
  </metadata>
  <g
     inkscape:label="レイヤー 1"
     inkscape:groupmode="layer"
     id="layer1"
     transform="translate(0,-540.36216)">
    <path
       sodipodi:type="star"
       style="opacity:0.95999995;fill:#5bb7ff;fill-opacity:1;stroke:#404040;stroke-width:4.87574196;stroke-miterlimit:4;stroke-dasharray:none;stroke-opacity:1"
       id="path4144"
       sodipodi:sides="6"
       sodipodi:cx="249.29946"
       sodipodi:cy="794.505"
       sodipodi:r1="243.45032"
       sodipodi:r2="210.83417"
       sodipodi:arg1="-1.5707963"
       sodipodi:arg2="-1.0471976"
       inkscape:flatsided="true"
       inkscape:rounded="0"
       inkscape:randomized="0"
       d="m 249.29946,551.05469 210.83416,121.72516 -1e-5,243.45032 -210.83416,121.72513 -210.834159,-121.72514 7e-6,-243.45032 z" />
    <path
       style="fill:#f158a4;fill-opacity:1;fill-rule:evenodd;stroke:#e5e5e5;stroke-width:4;stroke-linecap:butt;stroke-linejoin:miter;stroke-miterlimit:4;stroke-dasharray:none;stroke-opacity:1"
       d="m 293.57143,872.36215 c 0,0 120.68384,67.26031 133.15725,48.79825 16.5702,-24.52577 -81.01439,-135.9411 -81.01439,-135.9411 0,0 108.57143,-37.85715 102.14285,-66.42857 -6.5216,-28.98486 -154.28571,6.42857 -154.28571,6.42857 0,0 -101.70507,-113.94541 -122.85715,-101.42857 -23.31766,13.79834 25.7143,147.85715 25.7143,147.85715 0,0 -122.142865,92.14285 -127.142865,123.57142 -5,31.42857 147.857145,-37.85713 147.857145,-37.85713 0,0 -23.4216,135.03742 2.14285,141.42853 42.85715,10.7143 74.28572,-126.42855 74.28572,-126.42855 z"
       id="path4146"
       inkscape:connector-curvature="0"
       sodipodi:nodetypes="cscscscscsc" />
    <path
       style="opacity:1;fill:#f15883;fill-opacity:1;stroke:#121212;stroke-width:4;stroke-miterlimit:4;stroke-dasharray:none;stroke-opacity:1"
       d="M 339.81055 78.53125 C 320.33241 77.979865 289.35226 125.54418 268.79102 161.41602 A 90.714287 90.714287 0 0 0 257.14258 160.57227 A 90.714287 90.714287 0 0 0 197.59766 183 C 144.87665 165.50619 68.589438 142.91436 61.347656 156.14453 C 52.922407 171.53681 119.09863 214.23164 166.86914 242.47656 A 90.714287 90.714287 0 0 0 166.42773 251.28516 A 90.714287 90.714287 0 0 0 187.17578 308.91797 C 161.83919 349.43466 129.55585 407.92734 145.63281 420.43164 C 164.01484 434.72877 208.92309 374.33862 233.10742 338.65625 A 90.714287 90.714287 0 0 0 257.14258 342 A 90.714287 90.714287 0 0 0 262.19727 341.82227 C 280.75799 380.01264 314.50919 443.20323 331.34766 435.43164 C 357.48253 423.3694 334.47035 356.53388 318.5293 317.95312 A 90.714287 90.714287 0 0 0 339.52344 289.03711 C 379.42654 286.70986 441.25155 280.69557 442.36133 265.6582 C 443.92006 244.53772 382.04422 228.86169 342.56055 221.0293 A 90.714287 90.714287 0 0 0 322.95703 188.92578 C 338.82231 153.01259 362.46601 91.999968 345.63281 80.431641 C 343.84128 79.200444 341.89192 78.590169 339.81055 78.53125 z "
       transform="translate(0,540.36216)"
       id="path4163" />
    <path
       style="opacity:1;fill:#ffffff;fill-opacity:1;stroke:#343434;stroke-width:2;stroke-miterlimit:4;stroke-dasharray:none;stroke-opacity:1"
       d="M 337.82422 84.013672 C 320.29139 84.542722 278.93873 168.79957 264.4707 199.4375 A 55 55 0 0 0 259.28516 199.14258 A 55 55 0 0 0 204.28516 254.14258 A 55 55 0 0 0 214.95312 286.5918 C 186.79821 323.49575 133.37229 407.0414 148.57227 417 C 165.6802 428.20865 222.73347 339.5442 232.82812 302.29297 A 55 55 0 0 0 259.28516 309.14258 A 55 55 0 0 0 314.28516 254.14258 A 55 55 0 0 0 290.46289 208.90625 C 319.4542 176.11202 358.90273 97.488898 340.71484 84.857422 C 339.84508 84.253374 338.8777 83.981883 337.82422 84.013672 z M 259.64258 222.71484 A 31.785715 31.785715 0 0 1 291.42773 254.5 A 31.785715 31.785715 0 0 1 259.64258 286.28516 A 31.785715 31.785715 0 0 1 227.85742 254.5 A 31.785715 31.785715 0 0 1 259.64258 222.71484 z "
       transform="translate(0,540.36216)"
       id="path4186" />
  </g>
</svg>

<?xml version="1.0" encoding="UTF-8" standalone="no"?>
<!-- Created with Inkscape (http://www.inkscape.org/) -->

<svg
   xmlns:dc="http://purl.org/dc/elements/1.1/"
   xmlns:cc="http://creativecommons.org/ns#"
   xmlns:rdf="http://www.w3.org/1999/02/22-rdf-syntax-ns#"
   xmlns:svg="http://www.w3.org/2000/svg"
   xmlns="http://www.w3.org/2000/svg"
   xmlns:sodipodi="http://sodipodi.sourceforge.net/DTD/sodipodi-0.dtd"
   xmlns:inkscape="http://www.inkscape.org/namespaces/inkscape"
   width="512"
   height="512"
   viewBox="0 0 512.00001 512.00001"
   id="svg2"
   version="1.1"
   inkscape:version="0.91 r13725"
   sodipodi:docname="koushou.svg"
   inkscape:export-filename="C:\Users\kawahira\Documents\Projects\enju\kirin\koushou.png"
   inkscape:export-xdpi="45"
   inkscape:export-ydpi="45">
  <defs
     id="defs4" />
  <sodipodi:namedview
     id="base"
     pagecolor="#ffffff"
     bordercolor="#666666"
     borderopacity="1.0"
     inkscape:pageopacity="0.0"
     inkscape:pageshadow="2"
     inkscape:zoom="1.4"
     inkscape:cx="274.80529"
     inkscape:cy="239.71341"
     inkscape:document-units="px"
     inkscape:current-layer="layer1"
     showgrid="false"
     units="px"
     inkscape:window-width="1826"
     inkscape:window-height="1051"
     inkscape:window-x="-9"
     inkscape:window-y="-9"
     inkscape:window-maximized="1" />
  <metadata
     id="metadata7">
    <rdf:RDF>
      <cc:Work
         rdf:about="">
        <dc:format>image/svg+xml</dc:format>
        <dc:type
           rdf:resource="http://purl.org/dc/dcmitype/StillImage" />
        <dc:title />
      </cc:Work>
    </rdf:RDF>
  </metadata>
  <g
     inkscape:label="レイヤー 1"
     inkscape:groupmode="layer"
     id="layer1"
     transform="translate(0,-540.36216)">
    <path
       sodipodi:type="star"
       style="opacity:0.95999995;fill:#5bb7ff;fill-opacity:1;stroke:#404040;stroke-width:4.87574196;stroke-miterlimit:4;stroke-dasharray:none;stroke-opacity:1"
       id="path4144"
       sodipodi:sides="6"
       sodipodi:cx="249.29946"
       sodipodi:cy="794.505"
       sodipodi:r1="243.45032"
       sodipodi:r2="210.83417"
       sodipodi:arg1="-1.5707963"
       sodipodi:arg2="-1.0471976"
       inkscape:flatsided="true"
       inkscape:rounded="0"
       inkscape:randomized="0"
       d="m 249.29946,551.05469 210.83416,121.72516 -1e-5,243.45032 -210.83416,121.72513 -210.834159,-121.72514 7e-6,-243.45032 z" />
    <path
       style="fill:#f158a4;fill-opacity:1;fill-rule:evenodd;stroke:#e5e5e5;stroke-width:4;stroke-linecap:butt;stroke-linejoin:miter;stroke-miterlimit:4;stroke-dasharray:none;stroke-opacity:1"
       d="m 293.57143,872.36215 c 0,0 120.68384,67.26031 133.15725,48.79825 16.5702,-24.52577 -81.01439,-135.9411 -81.01439,-135.9411 0,0 106.42857,-43.57144 99.99999,-72.14286 -6.5216,-28.98486 -152.14285,12.14286 -152.14285,12.14286 0,0 -101.70507,-113.94541 -122.85715,-101.42857 -23.31766,13.79834 25.7143,147.85715 25.7143,147.85715 0,0 -122.142865,92.14285 -127.142865,123.57142 -5,31.42857 147.857145,-37.85713 147.857145,-37.85713 0,0 -23.4216,135.03742 2.14285,141.42853 42.85715,10.7143 74.28572,-126.42855 74.28572,-126.42855 z"
       id="path4146"
       inkscape:connector-curvature="0"
       sodipodi:nodetypes="cscscscscsc" />
    <path
       style="opacity:1;fill:#f15883;fill-opacity:1;stroke:#121212;stroke-width:4;stroke-miterlimit:4;stroke-dasharray:none;stroke-opacity:1"
       d="m 339.81055,78.53125 c -19.47814,-0.551385 -50.45829,47.01293 -71.01953,82.88477 -3.86066,-0.53116 -7.75153,-0.813 -11.64844,-0.84375 C 235.23742,160.61368 214.08709,168.58 197.59766,183 144.87665,165.50619 68.589438,142.91436 61.347656,156.14453 c -8.425249,15.39228 57.750974,58.08711 105.521484,86.33203 -0.28987,2.92731 -0.43718,5.86698 -0.44141,8.8086 0.0247,21.03548 11.90475,44.439 25.29374,60.66327 -25.33659,40.51669 -62.16562,95.97891 -46.08866,108.48321 18.38203,14.29713 56.21921,-48.6184 80.40354,-84.30077 7.82581,2.18598 22.98091,5.83601 31.10623,5.86913 1.68622,-0.0122 3.37177,-0.0715 5.05469,-0.17773 18.56072,38.19037 52.31192,101.38096 69.15039,93.60937 26.13487,-12.06224 3.12269,-78.89776 -12.81836,-117.47852 8.84601,-8.15139 15.98249,-17.98073 20.99414,-28.91601 39.9031,-2.32725 101.72811,-8.34154 102.83789,-23.37891 1.55873,-21.12048 -60.31711,-36.79651 -99.80078,-44.6289 -4.21969,-11.95331 -10.89774,-22.88957 -19.60352,-32.10352 15.86528,-35.91319 39.50898,-96.925812 22.67578,-108.494139 -1.79153,-1.231197 -3.74089,-1.841472 -5.82226,-1.900391 z"
       transform="translate(0,540.36216)"
       id="path4163"
       inkscape:connector-curvature="0"
       sodipodi:nodetypes="scccscccscccsccsccss" />
    <path
       style="opacity:1;fill:#ffffff;fill-opacity:1;stroke:#343434;stroke-width:2;stroke-miterlimit:4;stroke-dasharray:none;stroke-opacity:1"
       d="m 337.82422,84.013672 c -17.53283,0.52905 -58.88549,84.785898 -73.35352,115.423828 -1.7229,-0.17991 -3.45335,-0.27833 -5.18554,-0.29492 -30.37566,0 -55,24.62434 -55,55 0.022,11.67449 0.22267,21.52393 7.13243,30.93399 -28.15491,36.90395 -79.56053,124.49021 -64.36055,134.44881 17.10793,11.20865 77.19166,-75.43549 87.28631,-112.68672 8.10226,4.4728 15.68697,2.28305 24.94181,2.30392 30.37566,0 55,-24.62434 55,-55 -0.0241,-18.07744 -8.92989,-34.98882 -23.82227,-45.23633 28.99131,-32.79423 68.43984,-111.417352 50.25195,-124.048828 -0.86976,-0.604048 -1.83714,-0.875539 -2.89062,-0.84375 z M 259.64258,222.71484 c 17.55433,3.1e-4 31.78484,14.23083 31.78515,31.78516 -3.1e-4,17.55433 -14.23082,31.78485 -31.78515,31.78516 -17.55433,-3.1e-4 -31.78485,-14.23083 -31.78516,-31.78516 3.1e-4,-17.55433 14.23083,-31.78485 31.78516,-31.78516 z"
       transform="translate(0,540.36216)"
       id="path4186"
       inkscape:connector-curvature="0"
       sodipodi:nodetypes="sccccsccccssccccc" />
  </g>
</svg>
